domfk/img/decor/ruka.svg

<svg width="255" height="284" viewBox="0 0 255 284" fill="none" xmlns="http://www.w3.org/2000/svg">
<g clip-path="url(#clip0)">
<path d="M279.523 218.67C274.356 219.409 268.697 217.684 259.592 213.986C242.368 207.33 232.28 196.482 228.589 182.677C225.882 172.569 217.762 171.337 213.579 164.68C214.564 164.68 215.548 164.68 216.532 164.68C218.008 164.68 219.239 162.955 218.008 162.215C215.056 160.489 211.611 159.503 208.166 159.01C207.182 159.01 206.936 157.778 207.674 157.285C210.135 156.052 213.333 155.312 216.04 154.573C216.532 154.326 216.04 153.833 215.548 153.833C210.135 155.066 203.245 156.052 198.078 156.298C195.863 156.545 194.879 158.764 195.371 160.736C196.109 163.941 195.371 167.639 193.649 168.871C194.141 170.844 193.895 172.076 194.879 174.788C196.109 177.746 195.863 183.663 192.91 186.128C190.45 188.1 187.743 191.305 184.79 194.017C184.052 194.757 184.79 195.989 185.775 195.743C186.021 195.743 186.267 195.496 186.267 195.496C187.005 195.25 187.743 195.989 187.251 196.729C179.377 208.562 172.98 212.26 158.216 217.93C153.049 219.903 144.191 224.094 137.055 223.847C134.594 225.573 132.38 227.052 129.673 228.038C128.443 228.531 128.443 230.503 129.673 230.503C131.642 230.503 133.364 230.01 135.086 229.271C141.484 229.271 147.881 228.778 154.033 227.545C154.525 227.545 154.771 228.038 154.279 228.284C146.405 232.475 138.039 235.68 129.427 235.927C125.244 237.159 120.323 238.885 116.878 237.653C111.465 235.927 107.036 229.024 108.512 223.354C104.821 222.121 101.868 219.409 101.13 214.972C103.099 215.958 105.559 217.191 108.02 217.93C109.25 218.423 110.234 216.698 109.25 215.712C107.036 213.986 104.329 211.767 101.376 207.33C92.272 194.51 88.8272 183.663 90.3035 173.309C90.3035 172.816 89.5654 172.569 89.3193 173.062C88.5811 174.788 88.089 176.76 87.5969 178.486C87.5969 178.732 86.8587 178.732 86.8587 178.486C87.1048 174.295 88.3351 168.132 89.3193 166.16C85.1363 159.503 82.4296 146.93 81.4454 135.837C83.4139 135.59 85.3823 135.344 87.3508 134.604C90.5496 133.618 96.7011 131.646 103.345 127.455C103.591 134.357 103.591 135.837 104.083 139.041C104.083 139.288 104.083 139.781 104.083 140.028C105.067 145.944 106.543 151.614 108.02 157.531C109.742 163.941 110.726 162.955 109.742 157.778C109.496 156.545 109.25 155.312 109.004 154.08C108.758 153.34 109.742 152.6 110.234 153.34C119.831 164.187 127.705 175.281 128.935 191.552C129.427 196.236 132.38 203.139 135.825 204.371C135.825 204.125 135.825 203.632 135.825 203.385C138.777 198.701 143.945 195.743 147.635 194.017C156.247 190.073 141.976 188.84 133.118 181.691C131.149 180.212 129.673 178.486 128.443 177.007C127.459 174.295 126.228 171.83 124.752 169.611C123.029 160.243 132.134 151.614 147.881 147.423C163.629 143.232 172.733 146.191 179.377 150.382C180.115 150.875 180.853 149.889 180.361 149.396C176.67 146.191 170.765 142.986 166.828 142.246C168.797 139.288 170.273 137.069 172.241 135.097C173.226 134.357 172.241 132.632 171.011 133.125H170.765C177.163 113.156 204.475 95.1595 222.684 99.597C227.851 100.83 244.337 105.514 252.703 113.896C260.577 117.594 267.959 116.361 277.555 117.1C278.785 117.1 279.523 115.621 278.293 114.882C271.157 111.184 259.346 105.267 257.624 102.802C260.823 100.337 265.99 97.1317 270.665 95.1595C271.403 94.913 271.157 93.9269 270.419 93.9269C263.037 94.6664 253.687 96.6387 247.782 99.597C241.63 95.6526 221.945 94.6664 215.056 94.1734C214.564 94.1734 214.071 94.4199 213.579 94.4199C196.847 96.8852 164.367 113.649 162.891 137.316C162.399 138.302 161.169 140.028 160.184 141.014C143.945 141.753 127.951 146.684 120.077 161.475C116.386 156.791 112.449 152.107 108.266 147.67C107.774 144.712 107.282 141.753 107.036 138.795C109.25 139.041 112.203 139.288 116.14 139.781C120.569 140.274 124.014 140.767 128.443 140.274C135.578 139.781 141.976 137.562 148.128 133.864C150.342 132.632 151.572 131.892 152.311 131.153C160.677 125.236 169.781 113.403 172.98 102.309C176.178 91.2151 177.163 80.6144 173.718 68.781C170.765 58.6734 165.106 50.0449 158.216 44.3748C157.232 43.3887 156.494 42.8956 155.263 42.156C152.064 39.9373 151.08 39.4442 143.698 35.7463C136.809 32.2949 140.254 34.0206 138.777 33.281C132.872 30.3227 127.951 27.3644 118.846 26.1317C115.894 22.9269 112.941 20.4616 108.758 17.9963C107.036 17.0102 84.8902 5.66992 82.1836 4.19075C81.9375 4.19075 81.6915 3.94422 81.4454 3.94422C73.5715 0.246307 64.4673 -1.47939 53.8867 0.246307C33.4638 3.94422 15.5014 21.2012 7.13541 40.9234C2.9524 50.7845 0.491804 59.6595 0.245745 70.5067C-0.246374 86.038 3.44452 99.104 9.59601 109.458C17.2239 122.031 30.265 131.399 46.0128 132.878C53.8867 133.618 60.0382 134.357 64.9594 134.85C64.9594 135.59 64.9594 136.083 64.7133 136.823C62.9909 159.503 64.4673 191.059 72.0951 212.26C74.8018 220.149 81.9375 227.545 88.8272 234.201C89.0732 235.927 89.5654 237.899 90.0575 239.625C91.7799 240.611 93.5023 241.597 95.4708 242.09C101.376 243.816 109.004 242.337 115.648 240.857C120.569 240.857 125.736 239.378 130.411 237.653C141.238 237.653 154.033 233.708 162.153 226.312C162.891 225.573 163.629 225.08 164.121 224.34C169.043 222.861 173.718 220.889 178.393 218.67C187.251 214.232 195.125 207.576 201.276 200.18C202.753 211.274 208.166 220.396 216.286 229.024C219.239 244.802 231.05 271.92 242.122 283.507C243.107 284.493 244.337 283.26 244.091 282.028C242.614 277.59 242.368 273.153 243.845 267.975C240.892 264.771 239.17 260.087 239.908 251.951C240.154 248.993 244.337 249.732 248.52 250.719C248.274 249.239 248.274 247.514 248.52 245.788C232.28 235.187 225.636 225.08 224.652 207.576C226.128 208.809 227.605 210.041 229.081 210.781C238.431 215.712 264.268 224.094 274.848 222.368C277.063 222.121 278.785 221.135 280.508 220.149C281.738 219.903 280.754 218.423 279.523 218.67ZM148.374 48.0727C152.557 50.0449 157.232 62.3713 157.97 69.5206C159.938 86.2845 156.001 94.6664 155.017 95.6526L154.771 95.8991C154.279 95.406 154.525 94.6664 154.771 93.6803C154.771 93.4338 155.017 93.1873 155.017 92.9408C158.708 67.7949 152.557 61.6317 148.374 48.0727ZM148.374 42.156C149.85 42.8956 151.08 43.8817 152.064 45.1144C152.311 45.3609 152.557 45.8539 152.803 46.1005C154.771 48.8123 157.478 51.031 159.446 53.9894C160.184 55.222 158.216 51.2776 157.478 50.2914C156.494 49.0588 155.755 47.5796 154.525 46.5935C154.279 46.347 154.771 45.8539 155.017 45.8539C156.494 46.5935 157.724 47.5796 158.462 48.5658C158.708 48.8123 158.708 49.0588 158.954 49.0588C161.169 51.7706 163.875 53.9894 165.598 56.9477C166.582 58.1803 164.121 53.9894 163.137 52.7567C162.399 51.5241 161.415 50.2914 160.43 49.3053C160.184 49.0588 160.431 48.5657 160.677 48.8123C161.661 49.3053 162.399 49.7984 163.137 50.538C180.115 69.5206 178.147 97.3783 165.352 117.1C164.86 117.84 163.629 118.333 162.645 118.333C161.907 118.087 161.415 117.347 161.907 116.607C165.844 110.198 168.797 103.048 170.273 95.6526H170.027C169.535 97.3783 168.797 98.8574 167.812 99.3505C167.812 98.1178 167.812 98.3644 168.058 95.1595H167.566C166.09 100.83 163.629 108.719 158.708 116.361C158.216 117.347 156.986 117.84 155.755 117.594C154.771 117.347 154.525 116.361 155.017 115.621C159.2 109.212 162.399 102.062 163.875 94.4199L163.383 94.1734C162.891 95.8991 162.153 97.3782 161.169 97.6248C161.169 96.3921 161.169 96.3921 161.415 93.4338H161.169C159.692 99.3505 156.986 107.239 152.064 114.882C151.326 115.868 150.096 116.361 149.112 116.114C148.128 115.868 147.881 114.882 148.374 114.142C163.137 91.9546 162.645 61.8782 146.897 43.3887C147.389 42.6491 147.881 41.9095 148.374 42.156ZM98.6696 16.7637C100.638 17.7498 102.36 18.9824 103.837 20.7081C107.036 24.8991 109.742 29.5831 111.957 34.5137C110.726 31.3088 109.742 29.0901 109.25 27.8574C110.234 28.3505 111.219 29.0901 112.203 30.0762C112.449 30.3227 112.695 30.0762 112.695 29.8296C111.219 27.1178 109.496 24.6526 107.528 22.4338C107.036 22.1873 107.774 21.4477 108.266 21.6942C109.988 22.6803 111.711 23.913 112.941 25.3921C114.417 27.1178 115.648 28.8435 116.632 30.8158C117.37 31.8019 118.6 32.2949 119.585 33.0345C120.077 33.281 120.323 32.5414 120.077 32.0484C119.339 31.0623 118.6 29.8296 117.862 28.8435C117.124 27.8574 118.108 26.6248 119.093 27.3644C121.307 28.8435 122.045 30.0762 122.537 30.8158C139.269 53.2498 136.563 85.2984 122.045 107.732C121.307 108.965 119.585 109.705 118.108 109.458C116.878 109.212 116.386 107.979 117.124 106.993C118.846 104.528 120.323 101.816 121.799 99.1039C124.506 93.6803 126.474 88.2567 127.705 82.5866L126.966 82.3401C126.228 84.0658 125.49 85.2984 124.752 85.5449C124.752 84.5588 124.752 84.5588 124.998 81.6005L124.014 81.3539C122.783 87.0241 120.815 92.6942 118.108 98.1178C117.616 98.8574 117.37 99.597 116.878 100.337C115.894 102.309 114.663 104.281 113.433 106.253C112.449 107.486 110.973 108.225 109.496 107.979C108.266 107.732 107.774 106.253 108.512 105.267C113.679 97.3783 117.37 88.7498 119.339 80.1213L118.354 79.8748C117.862 81.6005 117.124 82.8331 116.14 83.0796C116.14 82.0935 116.14 82.0935 116.386 79.3817L115.156 79.1352C112.941 88.2567 109.25 96.8852 104.329 104.528C103.345 106.007 101.622 106.746 99.8999 106.253C98.6696 106.007 97.9314 104.528 98.6696 103.541C109.988 86.2845 115.402 63.8505 110.234 41.9095C108.02 32.788 104.083 24.406 98.4235 17.7498C97.6853 17.5033 98.1774 16.5171 98.6696 16.7637ZM106.297 50.7845C104.821 36.9789 99.6538 28.1039 98.9156 24.406C103.837 26.6248 108.758 41.663 109.496 49.7984C110.973 65.5762 108.02 76.4234 106.297 79.8748C105.805 80.6144 105.313 78.3956 105.559 77.4095C106.051 72.4789 107.282 61.3852 106.297 50.7845ZM10.0881 83.3262C9.59601 81.3539 9.34995 79.1352 9.10389 76.9164C8.36571 65.8227 10.5802 57.1942 12.0566 54.7289C12.5487 53.9894 13.533 55.222 13.533 55.9616C13.533 56.4546 13.2869 57.4407 13.2869 58.9199C12.3027 66.5623 12.0566 74.2046 13.533 82.8331C13.533 83.0796 13.533 83.3262 13.2869 83.3262C13.0408 83.3262 12.5487 83.3262 12.3027 83.5727C11.8105 83.8192 11.0724 83.8192 10.5802 83.8192C10.3342 83.8192 10.0881 83.5727 10.0881 83.3262ZM16.4857 96.3921C15.7475 97.1317 13.2869 93.1873 11.3184 87.5171C11.3184 87.2706 11.3184 87.2706 11.5645 87.2706C12.3027 87.2706 13.2869 87.0241 14.0251 87.0241C14.2711 87.0241 14.5172 87.0241 14.5172 87.2706C14.7633 88.0102 14.7633 88.5033 15.0093 89.2428C16.2396 94.6664 16.7317 96.1456 16.4857 96.3921ZM39.6153 79.8748C36.6626 77.9026 33.9559 74.2046 33.2177 69.2741C32.9717 68.288 32.4795 67.5484 31.4953 67.3019L22.145 64.8366C22.145 64.8366 21.899 64.8366 22.145 64.5901C22.145 64.5901 22.145 64.3435 22.3911 64.3435C29.5268 65.5762 33.2177 52.0171 26.3281 49.5519C26.3281 49.5519 26.082 49.5519 26.3281 49.3053C26.3281 49.3053 26.3281 49.0588 26.5741 49.3053C27.5584 49.5519 33.2177 51.5241 36.1704 52.2637C37.1547 52.5102 38.1389 52.2637 38.8771 51.5241C40.8456 49.3053 43.3062 47.5796 45.7668 46.8401C46.0128 46.8401 46.0128 46.8401 46.0128 47.0866C46.0128 47.3331 46.0128 47.3331 45.7668 47.3331C43.3062 48.3192 41.3377 49.7984 39.3692 51.7706C38.8771 52.2637 39.1231 53.2498 39.8613 53.2498L50.1958 56.4546C53.8867 57.6873 55.117 62.6178 53.1485 66.5623C49.9498 73.2185 45.2746 70.7533 35.4323 68.0414C34.6941 67.7949 33.9559 68.5345 34.202 69.2741C34.9401 73.2185 36.9086 76.9164 39.8613 78.8887C40.1074 78.8887 40.1074 79.1352 40.1074 79.3817C40.1074 79.8748 39.8613 79.8748 39.6153 79.8748ZM69.1424 60.6456C68.8964 60.6456 68.8964 60.8921 68.8964 60.8921C69.6345 66.8088 67.6661 73.2185 63.9752 77.9025C63.9752 77.9025 63.7291 78.1491 63.9752 78.1491C61.0224 81.6005 57.0855 83.8192 53.6407 84.3123C52.1643 84.5588 51.9182 84.5588 51.1801 84.5588C48.7195 84.3123 44.5365 83.3262 43.3062 83.0796V82.8331H43.5522C43.7983 82.8331 44.0443 82.8331 44.2904 83.0796C46.751 83.8192 50.688 83.5727 54.3788 81.3539C67.42 73.7116 64.4673 56.4546 64.7133 59.413C65.2055 64.59 63.7291 67.5484 63.237 68.0414C62.9909 68.288 62.9909 68.0414 62.7449 67.7949C62.7449 67.3019 62.7449 66.5623 62.7449 66.3157C63.7291 59.413 62.2527 55.715 61.7606 53.7428C61.5146 53.2498 62.0067 52.0171 62.2527 52.5102C62.4988 52.7567 62.7449 53.0033 62.9909 53.4963L63.237 53.7428C61.7606 50.0449 59.054 47.0866 55.117 45.6074C53.6407 45.1144 52.4104 44.8678 50.934 44.8678C50.934 44.8678 50.688 44.8678 50.688 44.6213C50.688 44.6213 50.688 44.3748 50.934 44.3748C52.4104 44.3748 53.8867 44.6213 55.3631 45.1144C59.3 46.5935 62.0067 47.0866 64.9594 50.0449C66.1897 51.5241 67.42 53.0032 68.1582 54.9755C68.4042 56.9477 68.8964 58.6734 69.1424 60.6456Z" fill="#2B2B29"/>
<path d="M181.838 179.965C178.147 184.156 173.472 186.868 168.305 188.84C167.813 189.086 168.059 189.579 168.551 189.579C172.734 188.593 176.671 186.868 180.608 184.649C185.529 181.691 184.053 177.5 181.838 179.965Z" fill="#2B2B29"/>
<path d="M267.466 204.864C265.744 205.85 263.775 205.357 261.069 203.385C259.592 202.399 257.87 201.659 256.147 201.906C254.917 202.152 254.425 203.632 255.409 204.371C260.33 209.055 268.45 214.479 270.911 208.069C271.157 207.329 271.157 206.343 270.665 205.357C270.419 204.125 268.697 204.125 267.466 204.864Z" fill="#2B2B29"/>
<path d="M122.537 195.496C122.537 195.003 121.553 195.25 121.553 195.743C121.799 201.66 121.799 207.33 120.569 213C120.077 215.465 125.49 216.944 124.998 210.535C124.26 205.111 123.521 200.18 122.537 195.496Z" fill="#2B2B29"/>
</g>
<defs>
<clipPath id="clip0">
<rect width="281" height="284" fill="white"/>
</clipPath>
</defs>
</svg>

<svg width="255" height="284" fill="none" xmlns="http://www.w3.org/2000/svg"><g clip-path="url(#clip0)" fill="#2B2B29"><path d="M279.523 218.67c-5.167.739-10.826-.986-19.931-4.684-17.224-6.656-27.312-17.504-31.003-31.309-2.707-10.108-10.827-11.34-15.01-17.997h2.953c1.476 0 2.707-1.725 1.476-2.465-2.952-1.726-6.397-2.712-9.842-3.205-.984 0-1.23-1.232-.492-1.725 2.461-1.233 5.659-1.973 8.366-2.712.492-.247 0-.74-.492-.74-5.413 1.233-12.303 2.219-17.47 2.465-2.215.247-3.199 2.466-2.707 4.438.738 3.205 0 6.903-1.722 8.135.492 1.973.246 3.205 1.23 5.917 1.23 2.958.984 8.875-1.969 11.34-2.46 1.972-5.167 5.177-8.12 7.889-.738.74 0 1.972.985 1.726.246 0 .492-.247.492-.247.738-.246 1.476.493.984 1.233-7.874 11.833-14.271 15.531-29.035 21.201-5.167 1.973-14.025 6.164-21.161 5.917-2.461 1.726-4.675 3.205-7.382 4.191-1.23.493-1.23 2.465 0 2.465 1.969 0 3.691-.493 5.413-1.232 6.398 0 12.795-.493 18.947-1.726.492 0 .738.493.246.739-7.874 4.191-16.24 7.396-24.852 7.643-4.183 1.232-9.104 2.958-12.549 1.726-5.413-1.726-9.842-8.629-8.366-14.299-3.691-1.233-6.644-3.945-7.382-8.382 1.969.986 4.429 2.219 6.89 2.958 1.23.493 2.214-1.232 1.23-2.218-2.214-1.726-4.921-3.945-7.874-8.382-9.104-12.82-12.549-23.667-11.073-34.021 0-.493-.738-.74-.984-.247-.738 1.726-1.23 3.698-1.722 5.424 0 .246-.738.246-.738 0 .246-4.191 1.476-10.354 2.46-12.326-4.183-6.657-6.89-19.23-7.874-30.323 1.969-.247 3.937-.493 5.906-1.233 3.199-.986 9.35-2.958 15.994-7.149.246 6.902.246 8.382.738 11.586v.987c.984 5.916 2.46 11.586 3.937 17.503 1.722 6.41 2.706 5.424 1.722.247l-.738-3.698c-.246-.74.738-1.48 1.23-.74 9.597 10.847 17.471 21.941 18.701 38.212.492 4.684 3.445 11.587 6.89 12.819v-.986c2.952-4.684 8.12-7.642 11.81-9.368 8.612-3.944-5.659-5.177-14.517-12.326-1.969-1.479-3.445-3.205-4.675-4.684-.984-2.712-2.215-5.177-3.691-7.396-1.723-9.368 7.382-17.997 23.129-22.188 15.748-4.191 24.852-1.232 31.496 2.959.738.493 1.476-.493.984-.986-3.691-3.205-9.596-6.41-13.533-7.15 1.969-2.958 3.445-5.177 5.413-7.149.985-.74 0-2.465-1.23-1.972h-.246c6.398-19.969 33.71-37.966 51.919-33.528 5.167 1.233 21.653 5.917 30.019 14.299 7.874 3.698 15.256 2.465 24.852 3.204 1.23 0 1.968-1.479.738-2.218-7.136-3.698-18.947-9.615-20.669-12.08 3.199-2.465 8.366-5.67 13.041-7.643.738-.246.492-1.232-.246-1.232-7.382.74-16.732 2.712-22.637 5.67-6.152-3.944-25.837-4.93-32.726-5.424-.492 0-.985.247-1.477.247-16.732 2.465-49.212 19.229-50.688 42.896-.492.986-1.722 2.712-2.707 3.698-16.239.739-32.233 5.67-40.107 20.461-3.691-4.684-7.628-9.368-11.811-13.805-.492-2.958-.984-5.917-1.23-8.875 2.214.246 5.167.493 9.104.986 4.429.493 7.874.986 12.303.493 7.135-.493 13.533-2.712 19.685-6.41 2.214-1.232 3.444-1.972 4.183-2.711 8.366-5.917 17.47-17.75 20.669-28.844 3.198-11.094 4.183-21.695.738-33.528-2.953-10.108-8.612-18.736-15.502-24.406-.984-.986-1.722-1.48-2.953-2.219-3.199-2.219-4.183-2.712-11.565-6.41l-4.921-2.465c-5.905-2.958-10.826-5.917-19.931-7.15-2.952-3.204-5.905-5.67-10.088-8.135C107.036 17.01 84.89 5.67 82.184 4.191c-.246 0-.492-.247-.739-.247C73.572.246 64.467-1.479 53.887.246 33.464 3.944 15.5 21.201 7.135 40.923 2.952 50.784.492 59.66.245 70.507c-.491 15.531 3.2 28.597 9.351 38.951 7.628 12.573 20.669 21.941 36.417 23.42 7.874.74 14.025 1.479 18.946 1.972 0 .74 0 1.233-.246 1.973-1.722 22.68-.246 54.236 7.382 75.437 2.707 7.889 9.843 15.285 16.732 21.941.246 1.726.738 3.698 1.23 5.424 1.723.986 3.445 1.972 5.414 2.465 5.905 1.726 13.533.247 20.177-1.233 4.921 0 10.088-1.479 14.763-3.204 10.827 0 23.622-3.945 31.742-11.341.738-.739 1.476-1.232 1.968-1.972 4.922-1.479 9.597-3.451 14.272-5.67 8.858-4.438 16.732-11.094 22.883-18.49 1.477 11.094 6.89 20.216 15.01 28.844 2.953 15.778 14.764 42.896 25.836 54.483.985.986 2.215-.247 1.969-1.479-1.477-4.438-1.723-8.875-.246-14.053-2.953-3.204-4.675-7.888-3.937-16.024.246-2.958 4.429-2.219 8.612-1.232-.246-1.48-.246-3.205 0-4.931-16.24-10.601-22.884-20.708-23.868-38.212 1.476 1.233 2.953 2.465 4.429 3.205 9.35 4.931 35.187 13.313 45.767 11.587 2.215-.247 3.937-1.233 5.66-2.219 1.23-.246.246-1.726-.985-1.479zM148.374 48.073c4.183 1.972 8.858 14.298 9.596 21.448 1.968 16.763-1.969 25.145-2.953 26.132l-.246.246c-.492-.493-.246-1.233 0-2.219 0-.246.246-.493.246-.74 3.691-25.145-2.46-31.308-6.643-44.867zm0-5.917c1.476.74 2.706 1.726 3.69 2.958.247.247.493.74.739.986 1.968 2.712 4.675 4.931 6.643 7.89.738 1.232-1.23-2.712-1.968-3.699-.984-1.232-1.723-2.711-2.953-3.697-.246-.247.246-.74.492-.74 1.477.74 2.707 1.726 3.445 2.712.246.246.246.493.492.493 2.215 2.712 4.921 4.93 6.644 7.889.984 1.232-1.477-2.959-2.461-4.191a18.574 18.574 0 00-2.707-3.452c-.246-.246.001-.74.247-.493.984.493 1.722.986 2.46 1.726 16.978 18.983 15.01 46.84 2.215 66.562-.492.74-1.723 1.233-2.707 1.233-.738-.246-1.23-.986-.738-1.726 3.937-6.409 6.89-13.559 8.366-20.954h-.246c-.492 1.725-1.23 3.204-2.215 3.697 0-1.232 0-.986.246-4.19h-.492c-1.476 5.67-3.937 13.559-8.858 21.201-.492.986-1.722 1.479-2.953 1.233-.984-.247-1.23-1.233-.738-1.973 4.183-6.409 7.382-13.559 8.858-21.201l-.492-.247c-.492 1.726-1.23 3.205-2.214 3.452 0-1.233 0-1.233.246-4.191h-.246c-1.477 5.916-4.183 13.805-9.105 21.448-.738.986-1.968 1.479-2.952 1.232-.984-.246-1.231-1.232-.738-1.972 14.763-22.187 14.271-52.264-1.477-70.753.492-.74.984-1.48 1.477-1.233zM98.67 16.764c1.968.986 3.69 2.218 5.167 3.944 3.199 4.191 5.905 8.875 8.12 13.806-1.231-3.205-2.215-5.424-2.707-6.657.984.494 1.969 1.233 2.953 2.22.246.246.492 0 .492-.247a39.695 39.695 0 00-5.167-7.396c-.492-.247.246-.986.738-.74 1.722.986 3.445 2.219 4.675 3.698 1.476 1.726 2.707 3.451 3.691 5.424.738.986 1.968 1.479 2.953 2.219.492.246.738-.494.492-.987-.738-.986-1.477-2.218-2.215-3.205-.738-.986.246-2.218 1.231-1.479 2.214 1.48 2.952 2.712 3.444 3.452 16.732 22.434 14.026 54.482-.492 76.916-.738 1.233-2.46 1.973-3.937 1.726-1.23-.246-1.722-1.479-.984-2.465 1.722-2.465 3.199-5.177 4.675-7.89 2.707-5.423 4.675-10.846 5.906-16.516l-.739-.247c-.738 1.726-1.476 2.958-2.214 3.205 0-.986 0-.986.246-3.945l-.984-.246a71.705 71.705 0 01-5.906 16.764c-.492.74-.738 1.479-1.23 2.219-.984 1.972-2.215 3.944-3.445 5.916-.984 1.233-2.46 1.972-3.937 1.726-1.23-.247-1.722-1.726-.984-2.712 5.167-7.889 8.858-16.517 10.827-25.146l-.985-.246c-.492 1.725-1.23 2.958-2.214 3.205 0-.986 0-.986.246-3.698l-1.23-.247c-2.215 9.122-5.906 17.75-10.827 25.393-.984 1.479-2.707 2.218-4.43 1.725-1.23-.246-1.968-1.725-1.23-2.712 11.319-17.257 16.733-39.69 11.565-61.631-2.214-9.122-6.151-17.504-11.81-24.16-.739-.247-.247-1.233.246-.986zm7.627 34.02c-1.476-13.805-6.643-22.68-7.381-26.378 4.921 2.219 9.842 17.257 10.58 25.392 1.477 15.778-1.476 26.625-3.199 30.077-.492.74-.984-1.48-.738-2.466.492-4.93 1.723-16.024.738-26.625zM10.088 83.327c-.492-1.972-.738-4.19-.984-6.41-.738-11.093 1.476-19.722 2.953-22.187.492-.74 1.476.493 1.476 1.233 0 .493-.246 1.479-.246 2.958-.984 7.642-1.23 15.285.246 23.913 0 .247 0 .493-.246.493s-.738 0-.984.247c-.493.246-1.23.246-1.723.246-.246 0-.492-.246-.492-.493zm6.398 13.066c-.739.74-3.2-3.205-5.168-8.875 0-.246 0-.246.247-.246.738 0 1.722-.247 2.46-.247.246 0 .492 0 .492.247.246.74.246 1.232.492 1.972 1.23 5.423 1.723 6.903 1.477 7.15zm23.13-16.517c-2.953-1.972-5.66-5.67-6.398-10.6-.246-.987-.739-1.727-1.723-1.973l-9.35-2.465s-.246 0 0-.247c0 0 0-.246.246-.246 7.136 1.232 10.827-12.327 3.937-14.792 0 0-.246 0 0-.247 0 0 0-.246.246 0 .984.247 6.644 2.22 9.596 2.959.985.246 1.969 0 2.707-.74 1.969-2.219 4.43-3.944 6.89-4.684.246 0 .246 0 .246.247 0 .246 0 .246-.246.246-2.46.986-4.43 2.465-6.398 4.438-.492.493-.246 1.479.492 1.479l10.335 3.205c3.69 1.232 4.921 6.163 2.953 10.107-3.2 6.657-7.874 4.191-17.717 1.48-.738-.247-1.476.492-1.23 1.232.738 3.945 2.707 7.642 5.66 9.615.245 0 .245.246.245.493 0 .493-.246.493-.492.493zm29.526-19.23c-.246 0-.246.247-.246.247.739 5.917-1.23 12.327-4.92 17.01 0 0-.247.247 0 .247-2.954 3.451-6.89 5.67-10.335 6.163-1.477.247-1.723.247-2.46.247-2.462-.247-6.645-1.233-7.875-1.48v-.246h.246c.246 0 .492 0 .738.247 2.461.74 6.398.493 10.089-1.726 13.041-7.642 10.088-24.9 10.334-21.941.493 5.177-.984 8.135-1.476 8.628-.246.247-.246 0-.492-.246v-1.48c.984-6.902-.492-10.6-.984-12.572-.246-.493.246-1.726.492-1.233.246.247.492.493.738.986l.246.247c-1.476-3.698-4.183-6.656-8.12-8.136-1.476-.493-2.707-.74-4.183-.74 0 0-.246 0-.246-.246 0 0 0-.246.246-.246 1.476 0 2.953.246 4.43.74 3.936 1.478 6.643 1.972 9.595 4.93 1.23 1.48 2.461 2.958 3.2 4.93.245 1.973.737 3.698.983 5.67z"/><path d="M181.838 179.965c-3.691 4.191-8.366 6.903-13.533 8.875-.492.246-.246.739.246.739 4.183-.986 8.12-2.711 12.057-4.93 4.921-2.958 3.445-7.149 1.23-4.684zm85.628 24.899c-1.722.986-3.691.493-6.397-1.479-1.477-.986-3.199-1.726-4.922-1.479-1.23.246-1.722 1.726-.738 2.465 4.921 4.684 13.041 10.108 15.502 3.698.246-.74.246-1.726-.246-2.712-.246-1.232-1.968-1.232-3.199-.493zm-144.929-9.368c0-.493-.984-.246-.984.247.246 5.917.246 11.587-.984 17.257-.492 2.465 4.921 3.944 4.429-2.465-.738-5.424-1.477-10.355-2.461-15.039z"/></g><defs><clipPath id="clip0"><path fill="#fff" d="M0 0h281v284H0z"/></clipPath></defs></svg>
